X:1
T:Mo Li Hua (Jasmine Flower)
C:Trad Chinese folk song (pre-1900)
S:Public domain — traditional folk melody, collected before 1900
M:4/4
L:1/8
Q:1/4=72
K:G
H:G major (pentatonic subset G-A-B-D-E). Arranged for D xiao, 2nd octave.
H:One of the most beloved Chinese folk melodies; known internationally.
H:Range G4-E5.
G4 A2 G2 | E4 D4 | G4 A2 B2 | d6 B2 |
A4 B2 d2 | e4 d4 | B4 A2 G2 | G8 |
d4 e2 d2 | B4 A4 | G4 A2 B2 | d6 d2 |
e4 d2 B2 | A2 G2 E4 | G8 | G8 |]
